icons/pencil-ruler-2-fill.svg

<svg xmlns="http://www.w3.org/2000/svg" width="24" height="24" fill="none"><g clip-path="url(#a)"><g><path fill="#121212" d="M5.636 12.7069L7.464 14.5359L8.88 13.1199L7.05 11.2929L8.464 9.87895L10.293 11.7069L11.707 10.2929L9.88 8.46395L11.294 7.04995L13.12 8.87995L14.535 7.46495L12.706 5.63695L15.535 2.80895C15.7225 2.62148 15.9768 2.51616 16.242 2.51616C16.5072 2.51616 16.7615 2.62148 16.949 2.80895L21.191 7.05095C21.3785 7.23847 21.4838 7.49278 21.4838 7.75795C21.4838 8.02311 21.3785 8.27742 21.191 8.46495L8.464 21.1919C8.27648 21.3794 8.02217 21.4847 7.757 21.4847C7.49184 21.4847 7.23753 21.3794 7.05 21.1919L2.808 16.9499C2.62053 16.7624 2.51522 16.5081 2.51522 16.2429C2.51522 15.9778 2.62053 15.7235 2.808 15.5359L5.636 12.7069ZM14.121 18.3629L18.364 14.1209L21 16.7569V20.9999H16.758L14.121 18.3629ZM5.636 9.87795L2.807 7.04995C2.71403 6.95707 2.64027 6.84679 2.58994 6.72539C2.53962 6.60399 2.51372 6.47386 2.51372 6.34245C2.51372 6.21103 2.53962 6.0809 2.58994 5.95951C2.64027 5.83811 2.71403 5.72782 2.807 5.63495L5.636 2.80695C5.82353 2.61948 6.07784 2.51416 6.343 2.51416C6.60817 2.51416 6.86248 2.61948 7.05 2.80695L9.88 5.63495L5.636 9.87795Z"/></g></g><defs><clipPath id="a"><rect width="24" height="24" fill="white"/></clipPath></defs></svg>

<svg width="24" height="24" fill="none" xmlns="http://www.w3.org/2000/svg"><g clip-path="url(#a)"><path d="m5.636 12.707 1.828 1.829L8.88 13.12l-1.83-1.827 1.414-1.414 1.829 1.828 1.414-1.414L9.88 8.464l1.414-1.414 1.826 1.83 1.415-1.415-1.829-1.828 2.829-2.828a1 1 0 0 1 1.414 0l4.242 4.242a1 1 0 0 1 0 1.414L8.464 21.192a1 1 0 0 1-1.414 0L2.808 16.95a1 1 0 0 1 0-1.414l2.828-2.83Zm8.485 5.656 4.243-4.242L21 16.757V21h-4.242l-2.637-2.637ZM5.636 9.878 2.807 7.05a1 1 0 0 1 0-1.415l2.829-2.828a1 1 0 0 1 1.414 0l2.83 2.828-4.244 4.243Z" /></g><defs><clipPath id="a"><path fill="#fff" d="M0 0h24v24H0z"/></clipPath></defs></svg>
